X: 27552
T: Monastery Stones
R: hornpipe
M: 4/4
K: Aminor
EAAB c2BG|E2AG E3D|EAce a2bg|e2^fd egfd|
ecdB cBAG|AGED CDEG|AcBc dcBG|EAGB A4:|
e2ag e2^fd|e2ga bag^f|e2ce d3B|ABcd edBd|
e2ag e2^fd|e2ga bag^f|e^fge abgf|ecdB A4:|

